X:60
T:Daniel of the Sun  
B:CRE2.010 (DÃÂÃÂÃÂÃÂ³nall na GrÃÂÃÂÃÂÃÂ©ine)
F:file ID: cre.2/060dan_s
L:1/8
M:6/8
R:jig
Q:160
K:G
GGG AGA|Bdg dBA|BcB B2A|BcB B2A|
"5"G2G AGA|Bdg dBG|ABA A2D|ABA A2D|
"9"G3 A3|Bc/d/g dBG|BcB B2A|BcB B2A|
"13"G2G A3|Bc/d/g dBG|ABA A2D|ABA A2D||
%
"17"g2g fgf|efe dBA|BcB B2A|BcB B3|
"21"g2g agf|gfg dBG|ABA A2D|ABA A2D|
"25"g2g fgf|efe dBA|BcB B2A|BcB B3|
"29"g2g agf|gfg dBG|ABA A2A|ABA FED|HG6||

%%%

